X:1
T:Fado da Hylaria
T:Fado da Hylaria
T:in "Colecção dos melhores Fados para Bandolim"
T:Edição: Casa Suéca - Lisboa (1895)
%%score 1 { ( 2 5 ) | ( 3 4 ) }
L:1/8
Q:1/4=45
M:2/4
K:Eb
V:1 treble nm="Cavaquinho"
V:2 treble nm="Piano"
V:5 treble 
V:3 bass 
V:4 bass 
V:1
"^Lento" G | cc/>c/ c(=B/c/ |!>(! e)c/ z/ z3/2 G/!>)! | dd/>d/ d!>(!e/d/!>)! | dc/ z/ z c/d/ | %5
 e/d/c/B/ A/G/F/E/ | (AG/) z/ z a/g/ | g/f/f/e/ e/d/d/e/ |!>(! dc/ z/ z!<(! (3(E/G/c/)!>)!!<)! | %9
 (!//!e!//!d){/d} (c/=B/c/G/ | (B)A/) z/ z2 | (!//!a!//!g){/g} (f/e/d/g/ | c/)(c/e/g/ c') z || %13
"_marcato"[Q:1/4=55]"^poco agitato" (!>!C>E) (G>A) | (AG/) z/ z2 | (!>!G,>=B, D>)E | (DC/) z/ z2 | %17
[Q:1/4=50]"^tranquilo" (3(c=B(c) G>)G |!>(! BA z2!>)! | (3(g^f(g) d'>)e' | (d'c') z2 || %21
[K:C][Q:1/4=55]"^agitato"!<(! (!^!C/B,/C/E/ G/c/B/A/!<)! |!>(! A)G/ z/ z2!>)! | %23
 (G/^F/G/B/ d/f/e/d/ | (d)c/) z/ z2 |[Q:1/4=45]"^tranquillo""^espr." (3(c'bc') (3(g^fg) | %26
 (ba/) z/ (6:4:6(d/e/f/g/a/^a/) | (3(b^ab)[Q:1/4=35]"^rit." (3gfd | %28
[Q:1/4=50]"^a tempo" c z [Ec] z |] %29
V:2
 z | (6:4:6E/G/c/E/G/c/ (6:4:6E/G/c/E/G/c/ | (6:4:6E/G/c/E/G/c/ ec/ z/ | %3
 (6:4:6F/G/=B/F/G/B/ (6:4:6F/G/B/F/G/B/ | (6:4:6E/G/c/E/G/c/ dc/ z/ | %5
!>(! e'/d'/c'/b/ a/g/f/e/!>)! | [Aa][Gg]/ z/ !^!G, z | (GF ED) | DC/ z/ !^!C, z | %9
 e'd' c'/=b/c'/g/ | BA/ z/!>(! ba/ z/!>)! | AG F/E/D/G/ | C[EGc] [EGc] z || z2 (3C/E/G/(3C/E/G/ | %14
 (AG/) z/ (ag) | z2 (3G,/=B,/D/(3G,/B,/D/ | DC/ z/ (3d/c/=B/(3c/G/E/ | C>E G>G | BA ba | %19
 (G>=B d3/2{/f}e/ | dc) z2 ||[K:C] z4 | z2 !arpeggio!!>![Aa]g/ z/ | %23
 z/4 B,/4D/4F/4 z/4 B,/4D/4F/4 z/4 B,/4D/4F/4G/4F/4D/4B,/4 | %24
 z/4 G,/4C/4E/4 z/4 G,/4C/4E/4 (6:4:6d/c/B/c/e/g/ | (3!arpeggio![cc']Bc (3G^FG | %26
 !arpeggio![Bb]A (6:4:6F/E/D/E/F/^F/ | (3[FG]^FG (3[GB][=FA][DF] | E z !arpeggio![egc'] z |] %29
V:3
 z | (6:4:6C,/E,/G,/C/G,/E,/ (6:4:6C,/E,/G,/C/G,/E,/ | %2
 (6:4:6C,/E,/G,/C/G,/E,/ (6:4:6C,/E,/G,/C/G,/E,/ | %3
 (6:4:6D,/F,/G,/=B,/G,/F,/ (6:4:6D,/F,/G,/B,/G,/F,/ | %4
 (6:4:6C,/E,/G,/C/G,/E,/ (6:4:6C,/E,/G,/C/G,/E,/ | %5
 (6:4:6C,/E,/G,/C/G,/E,/ (6:4:6C,/E,/G,/C/G,/E,/ | %6
 (6:4:6D,/F,/G,/=B,/G,/F,/ (6:4:6D,/F,/G,/B,/G,/F,/ | %7
 (6:4:6G,,/=B,,/D,/F,/D,/B,,/ (6:4:6G,,/B,,/D,/F,/D,/B,,/ | %8
 (6:4:6C,/E,/G,/C/G,/E,/ (6:4:6C,/E,/G,/C/G,/E,/ | %9
 (6:4:6C,/E,/G,/C/G,/E,/ (6:4:6C,/E,/G,/C/G,/E,/ | (6:4:6F,/A,/D/F/D/A,/ (6:4:6F,/A,/D/F/D/A,/ | %11
 (6:4:6D,/F,/G,/=B,/G,/F,/ (6:4:6G,,/=B,,/D,/F,/D,/B,,/ | (6:4:6C,/E,/G,/C/G,/E,/ C, z || %13
 (6:4:6C,/E,/G,/C,/E,/G,/ (6:4:6E,/G,/C/E,/G,/C/ | %14
 (6:4:6D,/F,/G,/=B,/G,/F,/ (6:4:6D,/F,/G,/B,/G,/F,/ | %15
 (3G,,/D,/F,/(3G,,/D,/F,/ (3=B,,/F,/G,/(3B,,/F,/G,/ | (6:4:6C,/E,/G,/C,/E,/G,/ [C,E,G,C] z | %17
 (6:4:6E,/E,/G,/C/G,/E,/ (6:4:6E,/G,/C/E/C/G,/ | (6:4:6F,/F,/A,/D/A,/F,/ (6:4:6F,/A,/D/F/D/A,/ | %19
 (6:4:6D,/F,/G,/=B,/G,/F,/ (6:4:6G,,/=B,,/D,/F,/D,/B,,/ | (6:4:6C,/E,/G,/C/G,/E,/ C, z || %21
[K:C] z/4 E,/4G,/4C/4 z/4 E,/4G,/4C/4 z/4 E,/4G,/4C/4E/4C/4G,/4E,/4 | %22
 z/4 F,/4G,/4B,/4 z/4 F,/4G,/4B,/4 G,/4B,/4D/4F/4G/4F/4D/4B,/4 | G,G, G, z | %24
 C,C, C,/4E,/4G,/4C/4E/4C/4G,/4E,/4 | (6:4:6[E,,E,]/G,/C/E/C/G,/ (6:4:6E,/G,/C/E/C/G,/ | %26
 (6:4:6[D,,D,]/F,/A,/D/A,/F,/ D, z | (6:4:6G,,/B,,/D,/F,/D,/B,,/ (6:4:6G,,/B,,/D,/F,/D,/B,,/ | %28
 (6:4:6C,/E,/G,,/C,/E,/G,/ C z |] %29
V:4
 x | x4 | x4 | x4 | x4 | x4 | x4 | x4 | x4 | x4 | x4 | x4 | x4 || x4 | x4 | x4 | x4 | x4 | x4 | %19
 x4 | x4 ||[K:C] C,C, C, z | D,D, x2 | x4 | x4 | x4 | x4 | x4 | x4 |] %29
V:5
 x | x4 | x4 | x4 | x4 | x4 | x4 | x4 | x4 | x4 | x4 | x4 | x4 || x4 | x4 | x4 | x4 | x4 | x4 | %19
 x4 | x4 ||[K:C] x4 | x4 | x4 | x4 | x4 | x4 | B,4- | B,/ x7/2 |] %29

